svgs/moto.svg

<svg width="192" height="192" viewBox="0 0 192 192" fill="none" xmlns="http://www.w3.org/2000/svg">
<path d="M77.8222 169.74C27.249 156.961 3.86887 97.9269 32.2057 54.5591C68.501 -0.988739 153.22 13.1458 169.681 77.4955C183.629 132.024 132.351 183.517 77.8222 169.74ZM112.324 166.497C144.946 159.402 168.461 129.619 168.395 95.4795C168.272 31.0972 90.52 -0.987138 45.0276 44.5717C-6.63329 96.3082 40.7043 182.073 112.324 166.497ZM47.605 129.767C47.605 127.87 67.7505 59.4024 72.9068 43.7746C74.7083 38.3146 77.2926 44.1254 85.7879 72.7387C90.7692 89.5163 95.2041 103.664 95.6433 104.178C96.0824 104.692 100.615 91.1035 105.715 73.9813C111.8 53.5541 115.593 42.733 116.747 42.5093C118.989 42.0746 145.793 129.434 143.975 131.252C140.751 134.476 137.233 131.646 135.199 124.193C127.247 95.0568 110.017 90.7553 99.8873 115.378C96.8457 122.771 95.4645 122.599 91.4128 114.319C80.0809 91.1614 66.8051 93.9292 57.6047 121.367C54.0542 131.956 47.605 137.373 47.605 129.767Z" fill="black" stroke="black" stroke-width="8"/>
</svg>

<svg xmlns="http://www.w3.org/2000/svg" width="192" height="192" fill="none" viewBox="0 0 192 192"><path fill="#000" stroke="#000" stroke-width="8" d="M77.822 169.74C27.25 156.961 3.87 97.927 32.206 54.56 68.5-.99 153.22 13.145 169.68 77.495c13.948 54.528-37.33 106.021-91.859 92.244Zm34.502-3.243c32.622-7.095 56.137-36.878 56.071-71.018C168.272 31.097 90.52-.986 45.028 44.573c-51.661 51.736-4.324 137.501 67.296 121.925Zm-64.719-36.73c0-1.897 20.146-70.365 25.302-85.992 1.801-5.46 4.386.35 12.88 28.964 4.982 16.777 9.417 30.925 9.856 31.439.44.514 4.972-13.075 10.072-30.197 6.085-20.427 9.878-31.248 11.032-31.472 2.242-.434 29.046 86.925 27.228 88.743-3.224 3.224-6.742.394-8.776-7.059-7.952-29.136-25.182-33.438-35.312-8.815-3.041 7.393-4.422 7.221-8.474-1.059-11.332-23.158-24.608-20.39-33.808 7.048-3.55 10.589-10 16.006-10 8.4Z"/></svg>
